!!!!SEGMENT: pl-gd--ee-1638--003-022_marenzio-luca--madrigali-a-quatro-voci-zefiro-torna.krn
!!!cenid: 15xx:996
!!!COM: Marenzio, Luca
!!!COM-rismID: pe30003955
!!!CDT: ~1553-1599/08/22
!!!CNT: Italian
!!!GTL: Madrigali a quatro voci
!!!OTL: Zefiro torna
!!!OMV: 022
!!!PDT: 1587
!!!AGN:
!!!SMS-siglum: PL-GD
!!!SMS-shelfmark: Ee 1638
!!!SMS-shelfwork: 003-022 G
!!!SMS-variant:
!!!SMS-altvar:
!!!NIFC-rismSourceID: 1001202747
!!!NIFC-rismChildID: 990039322
!!!NIFC-islandoraID: pl-gd:57883
!!!URL-pdf-islandora: https://repozytorium.nifc.pl/islandora/object/pl-gd%3A57883/datastream/PDF/view
!!!URL-scan: https://polish.musicsources.pl/pl/lokalizacje/galeria/klocki-introligatorskie/655 @EN{Scan on Polish Music Sources Website} @PL{Skany w portalu Dziedzictwo Muzyki Polskiej w otwartym dostępie}
!!!ONB-nifc: UWAGA: zbiór na stronach: Canto: s. 637-653, Alto: s. do 486-501, Tenore: s. do 334-349, Bassus: s. do 182-197. Uwaga: utwory podzielone wg tytułów w spisach treści dostępnych na końcu każdej księgi głosowej.
!!!AIN: 1 alto 1 bass 1 soprn 1 tenor
!!!key: d
!!!filter-modern: sic -sq | shed -e "s/TX(.*):t=P:/tx$1:t=P:/LG" | shed -k -e "s/LO:N:vis/LO:n:vis:/L" | shed -e "s/^(\d+[\/\\]right)/$1yy/I;s/^(\d+[\/\\]left)/$1yy/I" | shed -e "s/-//B" | shed -e "s/^custos:/Xcustos:/I" | shed -k -e "s/LO:N:acc/LO:n:acc:/L" | autostem -r | tie -s  | humtr -p | modori -m
**kern	**text	**mod-text	**kern	**text	**mod-text	**kern	**text	**mod-text	**kern	**text	**mod-text
*part4	*part4	*part4	*part3	*part3	*part3	*part2	*part2	*part2	*part1	*part1	*part1
*staff4	*staff4	*staff4	*staff3	*staff3	*staff3	*staff2	*staff2	*staff2	*staff1	*staff1	*staff1
*I"BASSO	*	*	*I"TENORE	*	*	*I"ALTO	*	*	*I"CANTO	*	*
*I'B	*	*	*I'T	*	*	*I'A	*	*	*I'S	*	*
*mI"Basso	*	*	*mI"Tenore	*	*	*mI"Alto	*	*	*mI"Soprano	*	*
*ICvox	*	*	*ICvox	*	*	*ICvox	*	*	*ICvox	*	*
*Ibass	*	*	*Itenor	*	*	*Ialto	*	*	*Isoprn	*	*
*clefF3	*	*	*clefC3	*	*	*clefC2	*	*	*clefG2	*	*
*mclefF4	*	*	*mclefGv2	*	*	*mclefG2	*	*	*	*	*
*k[b-]	*	*	*k[b-]	*	*	*k[b-]	*	*	*k[b-]	*	*
*d:	*	*	*d:	*	*	*d:	*	*	*d:	*	*
*M2/1	*	*	*M2/1	*	*	*M2/1	*	*	*M2/1	*	*
*met(C)	*	*	*met(C)	*	*	*met(C)	*	*	*met(C)	*	*
*mmet(c)	*	*	*mmet(c)	*	*	*mmet(c)	*	*	*mmet(c)	*	*
=1-	=1-	=1-	=1-	=1-	=1-	=1-	=1-	=1-	=1-	=1-	=1-
!LO:TX:t=P:problem: znaki przykluczowe: BB- B-	!	!	!	!	!	!	!	!	!	!	!
!LO:TX:a:t=Prima parte.:mod=	!	!	!	!	!	!LO:TX:a:t=Prima parte.:mod=	!	!	!	!	!
!LO:TX:b:t=Zefiro torna:mod=	!	!	!LO:TX:a:t=Prima parte.:mod=	!	!	!LO:TX:t=P:problem: znaki przykluczowe: B- b-	!	!	!	!	!
0r	.	.	2.g\	Ze-	Ze-	2.b-\	Ze-	Ze-	2r	.	.
!	!	!	!	!	!	!	!	!	!LO:TX:a:t=Prima parte.:mod=	!	!
.	.	.	.	.	.	.	.	.	2.dd\	Ze-	Ze-
.	.	.	8f\	-fi-	-fi-	8a\	-fi-	-fi-	.	.	.
.	.	.	8e\	-ro	-ro	8g\	-ro	-ro	.	.	.
.	.	.	1d\	tor-	tor-	4f#X\	tor-	tor-	.	.	.
.	.	.	.	.	.	2g\	.	.	8cc\	-fi-	-fi-
.	.	.	.	.	.	.	.	.	8b-\	-ro	-ro
.	.	.	.	.	.	.	.	.	2a/	tor-	tor-
.	.	.	.	.	.	4f#X\	.	.	.	.	.
=2-	=2-	=2-	=2-	=2-	=2-	=2-	=2-	=2-	=2-	=2-	=2-
2r	.	.	2G/	-na	-na	2g\	-na	-na	2g/	-na	-na
2G\	E'l	E'l	4r	.	.	4r	.	.	4r	.	.
.	.	.	4d\	e'l	e'l	4g\	e'l	e'l	4b-\	e'l	e'l
4F/	bel	bel	4f\	bel	bel	4a\	bel	bel	4cc\	bel	bel
4.B-\	tem-	tem-	4.f\	tem-	tem-	4.b-\	tem-	tem-	4.dd\	tem-	tem-
8B-\	-po	-po	8f\	-po	-po	8b-\	-po	-po	8dd\	-po	-po
4G\	ri-	ri-	4g\	ri-	ri-	4b-\	ri-	ri-	4dd\	ri-	ri-
=3-	=3-	=3-	=3-	=3-	=3-	=3-	=3-	=3-	=3-	=3-	=3-
2A\	-me-	-me-	2e\	-me-	-me-	1a\	-me-	-me-	2cc#X\	-me-	-me-
4D/	-na	-na	2d\	-na	-na	.	.	.	4dd\	-na	-na
2d\	Ze-	Ze-	.	.	.	.	.	.	2ff\	Ze-	Ze-
.	.	.	1r	.	.	1a\	-na	-na	.	.	.
8c\	-fi-	-fi-	.	.	.	.	.	.	8ee\	-fi-	-fi-
8B-\	-ro	-ro	.	.	.	.	.	.	8dd\	-ro	-ro
2A\	tor-	tor-	.	.	.	.	.	.	4ccny\	tor-	tor-
.	.	.	.	.	.	.	.	.	4cc\	-na	-na
*	*	*	*	*	*	*	*	*	*custos:dd	*	*
!	!	!	!	!	!	!	!	!	!LO:LB:g=original	!	!
=4-	=4-	=4-	=4-	=4-	=4-	=4-	=4-	=4-	=4-	=4-	=4-
1G\	-na	-na	2.g\	Ze-	Ze-	4r	.	.	2r	.	.
.	.	.	.	.	.	2b-\	Ze-	Ze-	.	.	.
.	.	.	.	.	.	.	.	.	2.dd\	Ze-	Ze-
.	.	.	8f\	-fi-	-fi-	8a\	-fi-	-fi-	.	.	.
.	.	.	8e\	-ro	-ro	8g\	-ro	-ro	.	.	.
*	*	*	*	*	*	*custos:f#	*	*	*	*	*
!	!	!	!	!	!	!LO:LB:g=original	!	!	!	!	!
1r	.	.	1d\	tor-	tor-	4f#X\	tor-	tor-	.	.	.
.	.	.	.	.	.	2g\	.	.	8cc\	-fi-	-fi-
.	.	.	.	.	.	.	.	.	8b-\	-ro	-ro
.	.	.	.	.	.	.	.	.	2a/	tor-	tor-
.	.	.	.	.	.	4f#X\	.	.	.	.	.
=5-	=5-	=5-	=5-	=5-	=5-	=5-	=5-	=5-	=5-	=5-	=5-
2r	.	.	2G/	-na	-na	2g\	-na	-na	2g/	-na	-na
2G\	e'l	e'l	4r	.	.	4r	.	.	4r	.	.
.	.	.	4d\	e'l	e'l	4g\	e'l	e'l	4b-\	e'l	e'l
*	*	*	*custos:f	*	*	*	*	*	*	*	*
!	!	!	!LO:LB:g=original	!	!	!	!	!	!	!	!
4F/	bel	bel	4f\	bel	bel	4a\	bel	bel	4cc\	bel	bel
4.B-\	tem-	tem-	4.f\	tem-	tem-	4.b-\	tem-	tem-	4.dd\	tem-	tem-
8B-\	-po	-po	8f\	-po	-po	8b-\	-po	-po	8dd\	-po	-po
4G\	ri-	ri-	4g\	ri-	ri-	4b-\	ri-	ri-	4dd\	ri-	ri-
*custos:A	*	*	*	*	*	*	*	*	*	*	*
!LO:LB:g=original	!	!	!	!	!	!	!	!	!	!	!
=6-	=6-	=6-	=6-	=6-	=6-	=6-	=6-	=6-	=6-	=6-	=6-
2A\	-me-	-me-	2e\	-me-	-me-	2a\	-me-	-me-	2cc#X\	-me-	-me-
2D/	-na	-na	2d\	-na	-na	4a\	-na	-na	4.dd\	-na	-na
.	.	.	.	.	.	4a\	E i	E i	.	.	.
.	.	.	.	.	.	.	.	.	16ccny\	.	.
.	.	.	.	.	.	.	.	.	16b-\	.	.
2d\	E i	E i	4r	.	.	8fny\	fior'	fior'	2a/	.	.
.	.	.	.	.	.	8g\	.	.	.	.	.
.	.	.	4d\	E i	E i	8a\	.	.	.	.	.
.	.	.	.	.	.	8f\	.	.	.	.	.
2c\	fio-	fio-	8e\	fior'	fior'	2g\	.	.	4r	.	.
.	.	.	8f\	.	.	.	.	.	.	.	.
.	.	.	8g\	.	.	.	.	.	4cc\	Ei	Ei
.	.	.	8e\	.	.	.	.	.	.	.	.
=7-	=7-	=7-	=7-	=7-	=7-	=7-	=7-	=7-	=7-	=7-	=7-
2B-\	-r'e	-r'e	2f\	.	.	4r	.	.	8dd\	fior'	fior'
.	.	.	.	.	.	.	.	.	8ee\	.	.
.	.	.	.	.	.	4d/	e i	e i	8ff\	.	.
.	.	.	.	.	.	.	.	.	8dd\	.	.
2A\	l'her-	l'her-	2r	.	.	8c/	fior	fior	4ee\	.	.
.	.	.	.	.	.	8d/	.	.	.	.	.
.	.	.	.	.	.	8e/	.	.	4cc\	e i	e i
.	.	.	.	.	.	8c/	.	.	.	.	.
*	*	*	*	*	*	*custos:d	*	*	*custos:b	*	*
!	!	!	!	!	!	!	!	!	!LO:LB:g=original	!	!
!	!	!	!	!	!	!LO:LB:g=original	!	!	!LO:N:acc=#	!	!
2G\	-be	-be	4r	.	.	2d/	.	.	8bn\	fior	fior
.	.	.	.	.	.	.	.	.	8cc\	.	.
.	.	.	4d\	e i	e i	.	.	.	8dd\	.	.
.	.	.	.	.	.	.	.	.	8bny\	.	.
2c\	e i	e i	8e\	fior	fior	4r	.	.	2cc\	.	.
.	.	.	8f\	.	.	.	.	.	.	.	.
.	.	.	8g\	.	.	4e/	e	e	.	.	.
.	.	.	8e\	.	.	.	.	.	.	.	.
=8-	=8-	=8-	=8-	=8-	=8-	=8-	=8-	=8-	=8-	=8-	=8-
2B-\	fior'-	fior'-	2f\	.	.	8d/	l'her-	l'her-	4r	.	.
.	.	.	.	.	.	8e/	.	.	.	.	.
.	.	.	.	.	.	8f\	.	.	4dd\	e	e
.	.	.	.	.	.	8g\	.	.	.	.	.
2A\	-e 	-e 	4r	.	.	4a\	.	.	8cc\	l'her-	l'her-
.	.	.	.	.	.	.	.	.	8dd\	.	.
.	.	.	4c/	e	e	4a\	-be	-be	8ee\	.	.
.	.	.	.	.	.	.	.	.	8ff\	.	.
*	*	*	*custos:B-	*	*	*	*	*	*	*	*
!	!	!	!LO:LB:g=original	!	!	!	!	!	!	!	!
2G\	l'her-	l'her-	8B-/	l'her-	l'her-	2r	.	.	4gg\	.	.
.	.	.	8c/	.	.	.	.	.	.	.	.
.	.	.	8d\	.	.	.	.	.	4gg\	-be	-be
.	.	.	8e\	.	.	.	.	.	.	.	.
2F/	-be	-be	4f\	.	.	2a\	ſua	sua	4r	.	.
.	.	.	4f\	-be	-be	.	.	.	4cc\	ſua	sua
=9-	=9-	=9-	=9-	=9-	=9-	=9-	=9-	=9-	=9-	=9-	=9-
2B-\	ſua	sua	1f\	ſua	sua	1b-\	dol-	dol-	1dd\	dol-	dol-
2A\	dol-	dol-	.	.	.	.	.	.	.	.	.
2G\	-ce	-ce	1d\	dol-	dol-	2b-\	-ce	-ce	1dd\	-ce	-ce
2F/	fa-	fa-	.	.	.	2a\	fa-	fa-	.	.	.
=10-	=10-	=10-	=10-	=10-	=10-	=10-	=10-	=10-	=10-	=10-	=10-
*lig	*	*	*	*	*	*lig	*	*	*	*	*
1E-X/	-mi-	-mi-	2e-X\	-ce	-ce	1g\	-mi-	-mi-	2cc\	fa-	fa-
.	.	.	2d\	fa-	fa-	.	.	.	2.b-y/	-mi-	-mi-
1F\	.	.	1c\	-mi-	-mi-	1f\	.	.	.	.	.
.	.	.	.	.	.	.	.	.	8a/	.	.
.	.	.	.	.	.	.	.	.	8g/	.	.
.	.	.	.	.	.	.	.	.	2a/	.	.
*Xlig	*	*	*	*	*	*Xlig	*	*	*custos:b-	*	*
!	!	!	!	!	!	!	!	!	!LO:LB:g=original	!	!
=11-	=11-	=11-	=11-	=11-	=11-	=11-	=11-	=11-	=11-	=11-	=11-
1BB-/	-glia	-glia	2d\	-glia	-glia	2f\	-glia	-glia	2b-\	-glia	-glia
.	.	.	4f\	E	E	2r	.	.	4dd\	E	E
.	.	.	4g\	ga-	ga-	.	.	.	4dd\	ga-	ga-
4F/	e	E	8a\	-rir	-rir	2r	.	.	8cc\	-rir	-rir
.	.	.	8g\	.	.	.	.	.	8b-\	.	.
4F/	ga-	ga-	8f\	.	.	.	.	.	8a/	.	.
.	.	.	8eny\	.	.	.	.	.	8g/	.	.
2B-\	-rir	-rir	2d\	.	.	4b-\	E	E	2f/	.	.
.	.	.	.	.	.	4b-\	ga-	ga-	.	.	.
=12-	=12-	=12-	=12-	=12-	=12-	=12-	=12-	=12-	=12-	=12-	=12-
4F/	e	e	2r	.	.	8a\	-rir	-rir	2r	.	.
.	.	.	.	.	.	8g\	.	.	.	.	.
4F/	ga-	ga-	.	.	.	8f\	.	.	.	.	.
.	.	.	.	.	.	8e\	.	.	.	.	.
2B-\	-rir	-rir	4f\	E	E	4.d/	.	.	4dd\	E	E
.	.	.	4g\	ga-	ga-	.	.	.	4dd\	ga-	ga-
.	.	.	.	.	.	8e/	.	.	.	.	.
*custos:F	*	*	*	*	*	*	*	*	*	*	*
!LO:LB:g=original	!	!	!	!	!	!	!	!	!	!	!
4F/	e	e	8a\	-rir	-rir	1f\	.	.	8cc\	.	.
.	.	.	8g\	.	.	.	.	.	8b-\	.	.
4F/	ga-	ga-	8f\	.	.	.	.	.	8a/	.	.
.	.	.	8e\	.	.	.	.	.	8g/	.	.
2B-\	-rir	-rir	2d\	.	.	.	.	.	2f/	-rir	-rir
*	*	*	*custos:d	*	*	*custos:g	*	*	*	*	*
!	!	!	!LO:LB:g=original	!	!	!LO:LB:g=original	!	!	!	!	!
=13-	=13-	=13-	=13-	=13-	=13-	=13-	=13-	=13-	=13-	=13-	=13-
1G\	Pro-	Pro-	1d\	Pro-	Pro-	1g\	Pro-	Pro-	1b-\	Pro-	Pro-
2A\	-gne e	-gne e	2c#X/	-gne e	-gne e	2e/	-gne e	-gne e	2a/	-gne e	-gne e
1A\	pian-	pian-	1c#\	pian-	pian-	1e\	pian-	pian-	1a/	pian-	pian-
=14-	=14-	=14-	=14-	=14-	=14-	=14-	=14-	=14-	=14-	=14-	=14-
2A\	-ger	-ger	2c#/	-ger	-ger	2e/	-ger	-ger	2a/	-ger	-ger
2F#X/	Fi-	Fi-	2.d\	Fi-	Fi-	2A/	Fi-	Fi-	2a/	Fi-	Fi-
!	!	!	!	!	!	!	!	!	!LO:N:acc=#	!	!
2G\	-lo-	-lo-	.	.	.	2d/	-lo-	-lo-	2bn/	-lo-	-lo-
.	.	.	4g\	-lo-	-lo-	.	.	.	.	.	.
=15-	=15-	=15-	=15-	=15-	=15-	=15-	=15-	=15-	=15-	=15-	=15-
1C/	-me-	-me-	1g\	-me-	-me-	1e\	-me-	-me-	1cc\	-me-	-me-
*	*	*	*	*	*	*	*	*	*custos:cc	*	*
!	!	!	!	!	!	!	!	!	!LO:LB:g=original	!	!
4C/	-na	-na	4g\	-na	-na	4e\	-na	-na	4cc\	-na	-na
4c\	e	E	4g\	E	E	4e\	E	E	4ee\	E	E
4.c\	pri-	pri-	4.g\	pri-	pri-	4.cc\	pri-	pri-	4.ee\	pri-	pri-
8Fny/	-ma-	-ma-	8a\	-ma-	-ma-	8cc\	-ma-	-ma-	8ff\	-ma-	-ma-
=16-	=16-	=16-	=16-	=16-	=16-	=16-	=16-	=16-	=16-	=16-	=16-
4c\	-ue-	-ve-	4g\	-ue-	-ve-	4cc\	-ue-	-ve-	4ee\	-ue-	-ve-
4d\	-ra	-ra	4f\	-ra	-ra	4a\	-ra	-ra	4dd\	-ra	-ra
4.A\	can-	can-	4.e\	can-	can-	4.a\	can-	can-	4.cc\	can-	can-
8A\	-di-	-di-	8f\	-di-	-di-	8a\	-di-	-di-	8cc\	-di-	-di-
4B-\	-da e	-da e	4d\	-da	-da	4f\	-da e	-da e	4dd\	-da e	-da e
4G\	ver-	ver-	4g\	ver-	ver-	4b-\	ver-	ver-	4dd\	ver-	ver-
2d\	-mi-	-mi-	2f#X\	-mi-	-mi-	2a\	-mi-	-mi-	2dd\	-mi-	-mi-
=17-	=17-	=17-	=17-	=17-	=17-	=17-	=17-	=17-	=17-	=17-	=17-
1G\	-glia	-glia	1g\	-glia	-glia	1b-\	-glia	-glia	1dd\	-glia	-glia
*custos:G	*	*	*custos:G	*	*	*custos:g	*	*	*	*	*
!LO:LB:g=original	!	!	!LO:LB:g=original	!	!	!LO:LB:g=original	!	!	!	!	!
2r	.	.	8G/	Ri-	Ri-	8g\	Ri-	Ri-	4.gg\	Ri-	Ri-
.	.	.	8A/	.	.	8f\	.	.	.	.	.
.	.	.	8B-/	.	.	8g\	.	.	.	.	.
.	.	.	8cny\	.	.	8a\	.	.	16ff\	.	.
.	.	.	.	.	.	.	.	.	16ee\	.	.
8G\	Ri-	Ri-	4d\	.	.	4.b-\	.	.	4.dd\	.	.
8A\	.	.	.	.	.	.	.	.	.	.	.
8B-\	.	.	4G/	-don	-don	.	.	.	.	.	.
8c\	.	.	.	.	.	16a\	.	.	16cc\	.	.
.	.	.	.	.	.	16g\	.	.	16b-y\	.	.
=18-	=18-	=18-	=18-	=18-	=18-	=18-	=18-	=18-	=18-	=18-	=18-
4d\	.	.	2r	.	.	4f\	.	.	4a/	.	.
4G\	-don	-don	.	.	.	4b-\	-don	-don	4g/	-don	-don
2r	.	.	8G/	Ri-	Ri-	8g\	Ri-	Ri-	4.gg\	Ri-	Ri-
.	.	.	8A/	.	.	8f\	.	.	.	.	.
.	.	.	8B-/	.	.	8g\	.	.	.	.	.
.	.	.	8c\	.	.	8a\	.	.	16ff\	.	.
.	.	.	.	.	.	.	.	.	16ee\	.	.
*	*	*	*	*	*	*	*	*	*custos:dd	*	*
!	!	!	!	!	!	!	!	!	!LO:LB:g=original	!	!
8G\	Ri-	Ri-	4d	.	.	4.b-\	.	.	4.dd\	.	.
8A\	.	.	.	.	.	.	.	.	.	.	.
8B-\	.	.	4G/	-don	-don	.	.	.	.	.	.
8c\	.	.	.	.	.	16a\	.	.	16cc\	.	.
.	.	.	.	.	.	16g\	.	.	16b-\	.	.
4d\	.	.	4r	.	.	4f#X\	.	.	4a/	.	.
!	!	!	!	!	!	!	!	!	!LO:N:acc=#	!	!
2G\	-don	-don	4.d\	Ri-	Ri-	2g\	-don	-don	2bn/	-don	-don
=19-	=19-	=19-	=19-	=19-	=19-	=19-	=19-	=19-	=19-	=19-	=19-
.	.	.	8d\	-don	-don	.	.	.	.	.	.
4c\	i	i	4e\	i	i	4g\	i	i	4cc\	i	i
1B-\	pra-	pra-	1fny\	pra-	pra-	1b-\	pra-	pra-	1dd\	pra-	pra-
2F/	-ti e'l	-ti e'l	2f\	-ti e'l	-ti e'l	2a\	-ti	-ti	2cc\	-ti	-ti
=20-	=20-	=20-	=20-	=20-	=20-	=20-	=20-	=20-	=20-	=20-	=20-
2c\	ciel	ciel	2e\	ciel	ciel	4r	.	.	4r	.	.
.	.	.	.	.	.	4g\	e'l	e'l	4cc\	e'l	e'l
4r	.	.	4r	.	.	2b-\	ciel	ciel	2dd\	ciel	ciel
4G\	e'l	e'l	4d\	e'l	e'l	.	.	.	.	.	.
*	*	*	*	*	*	*custos:a	*	*	*	*	*
!	!	!	!	!	!	!LO:LB:g=original	!	!	!	!	!
2d\	ciel	ciel	2f\	ciel	ciel	4r	.	.	4r	.	.
.	.	.	.	.	.	4a\	e'l	e'l	4ff\	e'l	e'l
4r	.	.	4r	.	.	2.b-\	ciel	ciel	2.dd\	ciel	ciel
4G\	e'l	e'l	4B-/	e'l	e'l	.	.	.	.	.	.
=21-	=21-	=21-	=21-	=21-	=21-	=21-	=21-	=21-	=21-	=21-	=21-
4.d\	ciel	ciel	4.f\	ciel	ciel	.	.	.	.	.	.
.	.	.	.	.	.	4a\	ſi	si	4dd\	ſi	si
8d\	ſi-	si-	8f\	ſi	si	.	.	.	.	.	.
*	*	*	*custos:g	*	*	*	*	*	*	*	*
!	!	!	!LO:LB:g=original	!	!	!	!	!	!	!	!
4c\	-raſ-	-ras-	4g\	raſ-	ras-	4cc\	raſ-	ras-	4ee\	raſ-	ras-
4A\	-ſe-	-se-	4a\	-ſe-	-se-	4cc\	-ſe-	-se-	4ff#X\	-ſe-	-se-
*custos:G	*	*	*	*	*	*	*	*	*	*	*
!LO:LB:g=original	!	!	!	!	!	!	!	!	!	!	!
1G\	-re-	-re-	2d\	-re-	-re-	1b-\	-re-	-re-	1gg\	-re-	-re-
.	.	.	2e\	.	.	.	.	.	.	.	.
=22-	=22-	=22-	=22-	=22-	=22-	=22-	=22-	=22-	=22-	=22-	=22-
1F\	-na	-na	1f\	-na	-na	1a\	-na	-na	1cc\	-na	-na
2B-\	Gio-	Gio-	2d\	Gio-	Gio-	1r	.	.	1r	.	.
4B-\	-ue	-ve	4d\	-ue	-ve	.	.	.	.	.	.
4B-\	s'al-	s'al-	4d\	s'al-	s'al-	.	.	.	.	.	.
=23-	=23-	=23-	=23-	=23-	=23-	=23-	=23-	=23-	=23-	=23-	=23-
2B-\	-le-	-le-	2f\	-le-	-le-	2b-\	Gio-	Gio-	2dd\	Gio-	Gio-
2BB-/	-gra	-gra	2f\	-gra	-gra	4b-\	-ue	-ve	4dd\	-ue	-ve
.	.	.	.	.	.	4b-\	s'al-	s'al-	4dd\	s'al-	s'al-
*	*	*	*	*	*	*	*	*	*custos:dd	*	*
!	!	!	!	!	!	!	!	!	!LO:LB:g=original	!	!
4B-\	Gio-	Gio-	4f\	Gio-	Gio-	2b-\	-le-	-le-	2dd\	-le-	-le-
8B-\	-ue	-ve	8f\	-ue	-ve	.	.	.	.	.	.
8B-\	s'al-	s'al-	8f\	s'al-	s'al-	.	.	.	.	.	.
4B-\	-le-	-le-	4f\	-le-	-le-	2b-\	-gra	-gra	2dd\	-gra	-gra
4G\	-gra	-gra	4g\	-gra	-gra	.	.	.	.	.	.
=24-	=24-	=24-	=24-	=24-	=24-	=24-	=24-	=24-	=24-	=24-	=24-
4.d\	di	di	4.f\	di	di	4a\	Gio-	Gio-	4dd\	Gio-	Gio-
.	.	.	.	.	.	8a\	-ue	-ve	8dd\	-ue	-ve
8d\	mi-	mi-	8f\	mi-	mi-	8a\	s'al-	s'al-	8dd\	s'al-	s'al-
4B-\	-rar	-rar	4f\	-rar	-rar	4b-\	-le-	-le-	4dd\	-le-	-le-
4G\	ſua	sua	4g\	ſua	sua	4b-\	-gra	-gra	4dd\	-gra	-gra
2B-\	fi-	fi-	0f\	fi-	fi-	4.b-\	di	di	4.dd\	di	di
.	.	.	.	.	.	8b-\	mi-	mi-	8dd\	mi-	mi-
2B-\	-glia	-glia	.	.	.	4dd\	-rar	-rar	4ffny\	-rar	-rar
.	.	.	.	.	.	4cc\	ſua	sua	4ee\	ſua	sua
=25-	=25-	=25-	=25-	=25-	=25-	=25-	=25-	=25-	=25-	=25-	=25-
4BB-/	di	di	.	.	.	1b-\	fi-	fi-	1dd\	fi-	fi-
4C/	mi-	mi-	.	.	.	.	.	.	.	.	.
4D/	-rar	-rar	.	.	.	.	.	.	.	.	.
4Eny/	ſua	ſua	.	.	.	.	.	.	.	.	.
*custos:F	*	*	*	*	*	*	*	*	*	*	*
!LO:LB:g=original	!	!	!	!	!	!	!	!	!	!	!
2F/	fi-	fi-	1f\	-glia	-glia	1a\	-glia	-glia	1cc\	-glia	-glia
2F/	-glia	-glia	.	.	.	.	.	.	.	.	.
*	*	*	*	*	*	*custos:c	*	*	*	*	*
!	!	!	!	!	!	!LO:LB:g=original	!	!	!	!	!
=26-	=26-	=26-	=26-	=26-	=26-	=26-	=26-	=26-	=26-	=26-	=26-
1c\	L'a-	L'a-	1r	.	.	2r	.	.	8cc\	L'a-	L'a-
.	.	.	.	.	.	.	.	.	8dd\	.	.
.	.	.	.	.	.	.	.	.	8ee\	.	.
.	.	.	.	.	.	.	.	.	8ff\	.	.
.	.	.	.	.	.	8c/	L'a-	L'a-	4gg\	.	.
.	.	.	.	.	.	8d/	.	.	.	.	.
.	.	.	.	.	.	8e/	.	.	4gg\	-ria	-ria
.	.	.	.	.	.	8fny\	.	.	.	.	.
*	*	*	*custos:c	*	*	*	*	*	*	*	*
!	!	!	!LO:LB:g=original	!	!	!	!	!	!	!	!
2C/	-ria	-ria	8c/	L'a-	L'a-	4g\	.	.	2ee\	l'a-	l'a-
.	.	.	8d\	.	.	.	.	.	.	.	.
.	.	.	8e\	.	.	4g\	-ria	-ria	.	.	.
.	.	.	8f\	.	.	.	.	.	.	.	.
1c\	l'a-	l'a-	4g\	.	.	2e\	la'-	la'-	1cc\	-qua e	-qua e
.	.	.	4g\	-ria	-ria	.	.	.	.	.	.
=27-	=27-	=27-	=27-	=27-	=27-	=27-	=27-	=27-	=27-	=27-	=27-
.	.	.	2e\	l'a-	l'a-	2g\	-qua e	-qua e	.	.	.
4F/	-qua e	-qua e	4c/	-qua e	-qua e	2a\	la	la	2cc\	la	la
4F/	la	la	4f\	la	la	.	.	.	.	.	.
1G\	ter-	ter-	1d\	ter-	ter-	1g\	ter-	ter-	1b-y\	ter-	ter-
*	*	*	*	*	*	*	*	*	*custos:a	*	*
!	!	!	!	!	!	!	!	!	!LO:LB:g=original	!	!
=28-	=28-	=28-	=28-	=28-	=28-	=28-	=28-	=28-	=28-	=28-	=28-
4.D/	-ra e	-ra e	2d\	-ra e	-ra e	4.f\	-ra e	-ra e	1a/	-ra e	-ra e
8E/	d'a-	d'a-	.	.	.	8g\	d'a-	d'a-	.	.	.
2F/	-mor	-mor	2c/	d'a-	d'a-	2a\	-mor	-mor	.	.	.
4.BB-/	e	e	2B-/	-mor	-mor	4.d\	e	e	1dd\	d'a-	d'a-
8C/	d'A-	d'A-	.	.	.	8e\	d'a-	d'a-	.	.	.
2D/	-mor	-mor	2A/	pie-	pie-	2f\	-mor	-mor	.	.	.
=29-	=29-	=29-	=29-	=29-	=29-	=29-	=29-	=29-	=29-	=29-	=29-
4.G\	e	e	4B-/	-na	-na	4.B-/	e	e	2dd\	-mor	-mor
.	.	.	4.G/	e	e	.	.	.	.	.	.
8A\	d'A-	d'A-	.	.	.	8c/	d'a-	d'a-	.	.	.
2B-\	-mor	-mor	.	.	.	2d/	-mor	-mor	2.b-/	pie-	pie-
.	.	.	8A/	d'a-	d'a-	.	.	.	.	.	.
.	.	.	4B-/	-mor	-mor	.	.	.	.	.	.
1F\	pie-	pie-	1c\	pie-	pie-	1f\	pie-	pie-	.	.	.
.	.	.	.	.	.	.	.	.	8a/	.	.
.	.	.	.	.	.	.	.	.	8g/	.	.
.	.	.	.	.	.	.	.	.	2a/	.	.
=30-	=30-	=30-	=30-	=30-	=30-	=30-	=30-	=30-	=30-	=30-	=30-
!	!	!	!	!	!	!-	!	!	!	!	!
1BB-/	-na	-na	1d\	-na	-na	1f\	-na	-na	1b-\	-na	-na
*	*	*	*	*	*	*custos:b-	*	*	*	*	*
!	!	!	!	!	!	!LO:LB:g=original	!	!	!	!	!
1r	.	.	2g\	Ogn'-	Ogn'-	4r	.	.	2r	.	.
.	.	.	.	.	.	4b-\	Ogn'-	Ogn'-	.	.	.
.	.	.	4g\	-a-	-a-	4b-\	-a-	-a-	2dd\	Ogn'-	Ogn'-
.	.	.	4g\	-ni-	-ni-	4b-\	-ni-	-ni-	.	.	.
*	*	*	*custos:f	*	*	*	*	*	*	*	*
!	!	!	!LO:LB:g=original	!	!	!	!	!	!	!	!
=31-	=31-	=31-	=31-	=31-	=31-	=31-	=31-	=31-	=31-	=31-	=31-
1r	.	.	8f\	-mal	-mal	8a\	-mal	-mal	4dd\	-a-	-a-
.	.	.	8e\	.	.	8g\	.	.	.	.	.
.	.	.	8d\	.	.	8f\	.	.	4dd\	-ni-	-ni-
.	.	.	8e\	.	.	8g\	.	.	.	.	.
.	.	.	2f\	.	.	2a\	.	.	8cc\	-mal	-mal
.	.	.	.	.	.	.	.	.	8b-/	.	.
.	.	.	.	.	.	.	.	.	8a/	.	.
.	.	.	.	.	.	.	.	.	8b-/	.	.
1F\	d'a-	d'a-	4r	.	.	4r	.	.	2cc\	.	.
.	.	.	4c/	d'a-	d'a-	4a\	Ogn'	Ogn'	.	.	.
.	.	.	2f\	-mar	-mar	4a\	a-	a-	4r	.	.
.	.	.	.	.	.	4a\	-ni-	-ni-	4cc\	d'a-	d'a-
*custos:c	*	*	*	*	*	*	*	*	*	*	*
!LO:LB:g=original	!	!	!	!	!	!	!	!	!	!	!
=32-	=32-	=32-	=32-	=32-	=32-	=32-	=32-	=32-	=32-	=32-	=32-
2.c\	-mar	-mar	4r	.	.	4.g\	-mal	-mal	2.cc\	-mar	-mar
.	.	.	4e\	d'a-	d'a-	.	.	.	.	.	.
.	.	.	.	.	.	8f\	d'a-	d'a-	.	.	.
.	.	.	4.g\	-mar	-mar	4e/	-mar	-mar	.	.	.
4G\	ſi	si	.	.	.	4d/	ſi	si	2b-/	ſi	si
.	.	.	8f\	ſi	si	.	.	.	.	.	.
2A\	ri-	ri-	4e\	ri-	ri-	2c/	ri-	ri-	.	.	.
.	.	.	4f\	-con-	-con-	.	.	.	2a/	ri-	ri-
2B-\	-con-	-con-	4f\	-ſi-	-ſi-	2d/	-con-	-con-	.	.	.
.	.	.	8e\	.	.	.	.	.	4g/	-con-	-con-
.	.	.	8d\	.	.	.	.	.	.	.	.
=33-	=33-	=33-	=33-	=33-	=33-	=33-	=33-	=33-	=33-	=33-	=33-
1A\	-ſi-	-ſi-	4c#X/	.	.	1e\	-ſi-	-ſi-	1a/	-ſi-	-ſi-
.	.	.	2d\	.	.	.	.	.	.	.	.
.	.	.	4c#X/	.	.	.	.	.	.	.	.
2D/	-glia	-glia	2d\	-glia	-glia	4.f\	-glia	-glia	1a/	-glia	-glia
.	.	.	.	.	.	8g\	.	.	.	.	.
2d\	Ogn'	Ogn'	4r	.	.	2a\	.	.	.	.	.
.	.	.	4f\	Ogn'-	Ogn'-	.	.	.	.	.	.
*	*	*	*custos:f	*	*	*custos:a	*	*	*custos:ff	*	*
!	!	!	!LO:PB:g=original	!	!	!LO:PB:g=original	!	!	!LO:PB:g=original	!	!
=34-	=34-	=34-	=34-	=34-	=34-	=34-	=34-	=34-	=34-	=34-	=34-
4d\	a-	a-	4f\	-a-	-a-	4r	.	.	0r	.	.
4d\	-ni-	-ni-	4f\	-ni-	-ni-	4a\	Ogn'	Ogn'	.	.	.
8c\	-mal	-mal	8e\	-mal	-mal	4a\	a-	a-	.	.	.
8B-\	.	.	8d\	.	.	.	.	.	.	.	.
8A\	.	.	8cny\	.	.	4a\	-ni-	-ni-	.	.	.
8B-\	.	.	8d\	.	.	.	.	.	.	.	.
1c\	.	.	1e\	.	.	8g\	-mal	-mal	.	.	.
.	.	.	.	.	.	8f\	.	.	.	.	.
.	.	.	.	.	.	8e\	.	.	.	.	.
.	.	.	.	.	.	8f\	.	.	.	.	.
.	.	.	.	.	.	2g\	.	.	.	.	.
=35-	=35-	=35-	=35-	=35-	=35-	=35-	=35-	=35-	=35-	=35-	=35-
1F\	d'a-	d'a-	4r	.	.	4r	.	.	4r	.	.
.	.	.	4a\	Ogn'	Ogn'	4cc\	Ogn'	Ogn'	4ff\	Ogn'-	Ogn'-
.	.	.	4a\	a-	a-	4cc\	a-	a-	4ff\	-a-	-a-
.	.	.	4a\	-ni-	-ni-	4cc\	-ni-	-ni-	4ff\	-ni-	-ni-
2.c\	-mar	-mar	8g\	-mal	-mal	2.cc\	-mal	-mal	8ee\	-mal	-mal
.	.	.	8f\	.	.	.	.	.	8dd\	.	.
.	.	.	8e\	.	.	.	.	.	8cc\	.	.
.	.	.	8f\	.	.	.	.	.	8dd\	.	.
.	.	.	4g\	.	.	.	.	.	4ee\	.	.
4G\	ſi	si	4g\	d'a-	d'a-	4b-\	d'a-	d'a-	4dd\	d'a-	d'a-
=36-	=36-	=36-	=36-	=36-	=36-	=36-	=36-	=36-	=36-	=36-	=36-
2A\	ri-	ri-	4e\	-mar	-mar	4.a\	-mar	-mar	4cc\	-mar	-mar
.	.	.	4c/	ſi	si	.	.	.	4ff\	ſi	si
.	.	.	.	.	.	8g\	ſi	si	.	.	.
2B-\	-con-	-con-	4d\	ri-	ri-	4f\	ri-	ri-	4ff\	ri-	ri-
.	.	.	4e\	-con-	-con-	4g\	-con-	-con-	8ee\	.	.
.	.	.	.	.	.	.	.	.	8dd\	.	.
1A\	-ſi-	-ſi-	4f\	-ſi-	-ſi-	1a\	-ſi-	-ſi-	4cc\	.	.
.	.	.	8e\	.	.	.	.	.	2dd\	-con-	-con-
.	.	.	8d\	.	.	.	.	.	.	.	.
.	.	.	2e\	.	.	.	.	.	.	.	.
.	.	.	.	.	.	.	.	.	4cc#X\	-ſi-	-ſi-
=37-	=37-	=37-	=37-	=37-	=37-	=37-	=37-	=37-	=37-	=37-	=37-
0Dl	-glia.	-glia.	0dl	-glia.	-glia.	0al	-glia.	-glia.	0ddl\	-glia.	-glia.
==	==	==	==	==	==	==	==	==	==	==	==
*-	*-	*-	*-	*-	*-	*-	*-	*-	*-	*-	*-
!!!system-decoration: [(s1,s2,s3,s4)]
!!!RDF**kern: l = terminal long
!!!ENC: Berenika Jozajtis
!!!END: 2022-07-06
!!!ENC: Jan Barakat
!!!END: 2022-11-07
!!!ENC-modern: Andrzej Borzym
!!!END-modern: 2022-11-09
!!!YEC: Copyright 2022 Narodowy Instytut Fryderyka Chopina (https://polishscores.org)
!!!YEM: License CC-BY-4.0 (https://creativecommons.org/licenses/by/4.0)
